www/assets/icons/currency_rupee.svg

<svg xmlns="http://www.w3.org/2000/svg" width="24" height="24" viewBox="0 0 24 24" fill='currentColor'><path d="M13.66 7c-.56-1.18-1.76-2-3.16-2H6V3h12v2h-3.26c.48.58.84 1.26 1.05 2H18v2h-2.02c-.25 2.8-2.61 5-5.48 5h-.73l6.73 7h-2.77L7 14v-2h3.5c1.76 0 3.22-1.3 3.46-3H6V7z"/></svg>

<svg width="24" height="24" viewBox="0 0 24 24" xmlns="http://www.w3.org/2000/svg" fill='currentColor'><path d="M13.66 7C13.1 5.82 11.9 5 10.5 5H6V3H18V5H14.74C15.22 5.58 15.58 6.26 15.79 7H18V9H15.98C15.73 11.8 13.37 14 10.5 14H9.77L16.5 21H13.73L7 14V12H10.5C12.26 12 13.72 10.7 13.96 9H6V7H13.66Z"/></svg>
